!!!COM: BLAKPINK
!!!OTL: Kill This Love
**kern
*part1
*staff1
*
*
*clefG2
*k[b-]
*F:
*M4/4
*MM132
=1
!LO:TX:a:t=[quarter]=132
4r
6d
12d
4d
6d
12d
=2
4d
6d
12d
12dL
12e-X
12a-XJ
12dL
12e-
12a-J
=3
4r
6d
12d
4d
6d
12d
=4
4d
6d
12d
12a-XL
12g
12dJ
12a-L
12g
12dJ
!!linebreak:original
=5
4rg
6d
12d
4d
6d
12d
=6
4d
6d
12d
12dL
12e-X
12a-XJ
12dL
12e-
12a-J
=7
4r
6d
12d
4d
6d
12d
!!linebreak:original
=8
4d
6d
12d
2r
=9
6f
12f
6f
12f
4f
6f
12f
=10
6f
12f
6e
12e
4d
6f
12f
!!linebreak:original
=11
6f
12f
6f
12f
4f
6f
12f
=12
6f
12f
6e
12e
4d
6f
12f
=13
6f
12f
6f
12f
4f^
6f
12f
=14
6f
12f
6f
12f
4f^
6f
12f
!!linebreak:original
=15
6f
12f
6f
12f
4f^
6d
12e
=16
6f
12f
6e
12e
4d^
4r
=17
6f
12f
12fL
12f
12fJ
4f
4r
=18
12fL
12f
12fJ
12eL
12e
12eJ
4d
4r
!!pagebreak:original
=19
12aL
12g
12gJ
12gL
12f
12eJ
4d
12r
12r
12d
=20
12dL
12e
12fJ
12dL
12e
12fJ
4d
12fL
12g
12aJ
=21
12aL
12g
12gJ
12gL
12f
12eJ
6d
12d
12dL
12e
12fJ
!!linebreak:original
=22
6d
12d
12dL
12e
12fJ
6d
12d
12dL
12e
12fJ
=23
12aL
12g
12fJ
12gL
12f
12eJ
12fL
12e
12dJ
12eL
12d
12cJ
=24
12cL
12d
12eJ
12dL
12e
12fJ
12gL
12g
12fJ
12gL
12ccJ
12r
!!linebreak:original
=25!|:
16fLL
16fJ
8fJ
4r
16fLL
16fJ
8fJ
4r
=26
16eLL
16eJ
8eJ
4r
16eLL
16eJ
8eJ
8r
8d
=27
4.d
8dd
4r
8r
8e
=28
4.f
8g
2a
!!linebreak:original
=29
16fLL
16fJ
8fJ
4r
16fLL
16fJ
8fJ
4r
=30
16eLL
16eJ
8eJ
4r
16eLL
16eJ
8eJ
8r
8d
=31
4.d
8dd
4r
8r
8f
=32
4.f
8g
8aL
8f
8f
8ccJ
!!linebreak:original
=33
2b-
8r
8b-L
8b-
8b-J
=34
4b-
4a
4g
4f
=35
8ccL
8dd
8a
8aJ
4r
4r
=36
8ddL
8dd
8cc
8ccJ
4b-
8aL
[8ccJ
!!linebreak:original
=37
8cc]
4.b-
8r
8gL
8g
8aJ
=38
4b-
4a
4g
4f
=39
4g
8r
8a
8r
8a
8r
8a
!!pagebreak:original
=40
4r
4a 4aa
6a 6aa
12d 12dd
4d 4dd
=41
4d 4a 4dd
6dd
12dd
4dd
6dd
12dd
=42
4dd
6a 6dd
12a 12dd
6a 6dd
12d 12dd
4d 4a 4dd
=43
4r
6dd
12dd
4dd
6dd
12dd
!!linebreak:original
=44
4dd
6f 6ff
12f 12ff
6f 6ff
12f 12ff
6e 6ee
12e 12ee
=45
2d 2dd
2r
=46
4r
4a 4aa
6a 6aa
12d 12dd
4d 4dd
=47
2d 2a 2dd
2r
!!linebreak:original
=48
4r
6f 6ff
12f 12ff
6f 6ff
12f 12ff
6e 6ee
12e 12ee
=49
2d 2dd
2r
=50
1r
=51
12d
6c
12d
6c
12d
6c
12d
6c
!!linebreak:original
=52
12d
6c
12d
6c
12dL
12d
12cJ
4d 4a 4dd
=53
12d
6c
12d
6c
12d
6c
12d
6c
=54
12d
6c
12d
6c
12dL
12d
12cJ
6d 6a 6dd
12d
!!linebreak:original
=55
4d
4e
4f
4g
=56
4a
6a
12a
4dd
6d
12d
=57
4d
4e
4f
4g
=58
4a
6a
12a
4dd
4d
=59:|!
1r
=60
2r
12a-XL
12g
12fJ
12eL
12e-X
12dJ
!!pagebreak:original
=61
4r
12r
12r
12a
6a
12d
6a
12d
=62
2a
12r
12r
12a
6a
12cc
=63
[4cc
6cc]
12b-
2a
=64
2r
12r
12r
12a
4g
!!linebreak:original
=65
4r
12r
12r
12a
6a
12d
6a
12d
=66
4a
12r
12r
12a
4a
6a
12cc
=67
[4cc
6cc]
12b-
[4a
6a]
12a
=68
4r
4r
12r
12r
12g
4g
!!linebreak:original
=69
4a
4d
4d 4dd
4d
=70
4d 4dd
6g
12g
4g
6g
12g
=71
4a
4d
6d 6dd
12c
6d
12c
=72
4d 4dd
6g
12g
12g
6f
4r
!!linebreak:original
=73
4a
4d
6d 6dd
12c
6d
12c
=74
4d 4dd
6g
12g
4g
6g
12g
=75
4a
4d
6d 6dd
12g
6g
12g
=76
4a
4a
6d 6a 6dd
12d 12dd
4d 4dd
=77
4d
4r
2r
==
*-
!!!system-decoration: {(s1,s2)}
!!!YEM: Cages Music (Hoyah)
